build/img/icon-pinter-mobile.svg

<svg width="20" height="21" viewBox="0 0 20 21" fill="none" xmlns="http://www.w3.org/2000/svg">
<path d="M11.3644 0.0980097C8.97202 -0.247586 6.54139 0.327484 4.52129 1.71703C2.5012 3.10658 1.02807 5.21676 0.373929 7.65792C-0.280213 10.0991 -0.0711909 12.7064 0.962399 14.9983C1.99599 17.2902 3.78434 19.1121 5.99723 20.1274C5.93739 19.3208 5.99231 18.5094 6.1602 17.7198C6.34517 16.8389 7.456 11.9838 7.456 11.9838C7.2348 11.4631 7.12425 10.898 7.13205 10.3279C7.13205 8.76872 7.98891 7.60535 9.05474 7.60535C9.24622 7.60242 9.43605 7.64283 9.61133 7.72382C9.7866 7.80481 9.94322 7.92449 10.0705 8.07471C10.1978 8.22494 10.2928 8.40219 10.3491 8.59442C10.4053 8.78664 10.4215 8.98934 10.3965 9.18871C10.3965 10.1337 9.81862 11.5638 9.51667 12.9056C9.45699 13.1517 9.45321 13.4091 9.50561 13.657C9.55802 13.9049 9.66515 14.1364 9.81838 14.3329C9.9716 14.5294 10.1666 14.6853 10.3878 14.7881C10.6089 14.8909 10.8499 14.9377 11.0914 14.9247C12.9891 14.9247 14.2609 12.3722 14.2609 9.35881C14.2609 7.04886 12.8041 5.3185 10.1186 5.3185C9.47605 5.29228 8.83516 5.40347 8.2348 5.64531C7.63445 5.88715 7.08717 6.2546 6.62618 6.72535C6.16519 7.1961 5.80012 7.76033 5.55312 8.38378C5.30613 9.00722 5.18237 9.67688 5.18936 10.3521C5.16073 11.1011 5.39083 11.8357 5.83726 12.4205C5.92067 12.4859 5.98159 12.578 6.0108 12.683C6.04002 12.7879 6.03596 12.8999 5.99923 13.0022C5.95324 13.1954 5.83726 13.6564 5.79126 13.8254C5.7817 13.8827 5.75944 13.9369 5.7263 13.9836C5.69315 14.0302 5.65003 14.068 5.60042 14.094C5.55081 14.1199 5.49609 14.1333 5.44067 14.1329C5.38525 14.1326 5.33068 14.1186 5.28134 14.0921C3.89757 13.5104 3.24567 11.9113 3.24567 10.0854C3.24567 7.09611 5.62929 3.51779 10.3985 3.51779C14.1939 3.51779 16.7175 6.43357 16.7175 9.55201C16.7175 13.6564 14.5409 16.7423 11.3244 16.7423C10.8436 16.7584 10.3668 16.647 9.93793 16.4183C9.50907 16.1896 9.14203 15.8511 8.87077 15.434C8.87077 15.434 8.29286 17.8657 8.17888 18.3256C7.94621 19.1201 7.60288 19.8741 7.16004 20.5631C8.0829 20.8571 9.04174 21.0041 10.0056 20.9999C11.319 21.001 12.6196 20.7301 13.8331 20.2025C15.0467 19.675 16.1492 18.9013 17.0775 17.9257C18.0059 16.9501 18.7419 15.7918 19.2434 14.517C19.7448 13.2423 20.002 11.8762 20 10.497C19.9987 7.96129 19.1239 5.51169 17.537 3.6005C15.9501 1.68932 13.7583 0.44562 11.3664 0.0990596L11.3644 0.0980097Z" fill="white"/>
</svg>

<svg width="20" height="21" fill="none" xmlns="http://www.w3.org/2000/svg"><path d="M11.364.098a9.623 9.623 0 00-6.843 1.619c-2.02 1.39-3.493 3.5-4.147 5.94a10.986 10.986 0 00.588 7.341c1.034 2.292 2.822 4.114 5.035 5.13a8.543 8.543 0 01.163-2.408c.185-.881 1.296-5.736 1.296-5.736a4.096 4.096 0 01-.324-1.656c0-1.56.857-2.723 1.923-2.723a1.28 1.28 0 01.556.119c.176.08.332.2.46.35.127.15.222.328.278.52.056.193.072.395.047.595 0 .945-.577 2.375-.88 3.717a1.7 1.7 0 00-.01.751c.052.248.16.48.312.676.154.196.349.352.57.455.22.103.462.15.703.137 1.898 0 3.17-2.553 3.17-5.566 0-2.31-1.457-4.04-4.142-4.04a4.542 4.542 0 00-1.884.326c-.6.242-1.148.61-1.609 1.08a5.002 5.002 0 00-1.073 1.659 5.202 5.202 0 00-.364 1.968 3.211 3.211 0 00.648 2.069.505.505 0 01.174.262.528.528 0 01-.012.32 42.46 42.46 0 01-.208.822.382.382 0 01-.065.159.36.36 0 01-.126.11.34.34 0 01-.319-.002c-1.383-.582-2.035-2.18-2.035-4.007 0-2.989 2.383-6.567 7.152-6.567 3.796 0 6.32 2.916 6.32 6.034 0 4.104-2.177 7.19-5.394 7.19a2.748 2.748 0 01-1.386-.324 2.91 2.91 0 01-1.067-.984s-.578 2.432-.692 2.892a8.618 8.618 0 01-1.019 2.237 9.236 9.236 0 002.846.437 9.572 9.572 0 003.827-.797 9.967 9.967 0 003.245-2.277 10.537 10.537 0 002.165-3.409c.502-1.275.759-2.64.757-4.02-.001-2.536-.876-4.985-2.463-6.896C15.95 1.689 13.758.446 11.367.099l-.003-.001z" fill="#fff"/></svg>
